X:0993
M:6/8
L:1/8
Q:3/8=120
K:A Mixolydian
d2d fga|BcB c2B|ABA ABA|BcB c2A|d2d fga|BcB c2A|Bcd edc|e3 A3:|

